X: 549
T: My Love Will Ne'er Forsake Me   #2
R: air, waltz
%S: s:3 b:12(4+4+4)
B: O'Neill's 1850 #549
Q: "With feeling"
O: J.O'Neill
Z: Transcribed by Dave Wooldridge
N: Compacted by using labels and play order [JC]
P: Play AB CB
M: 3/4
L: 1/8
K: D
"^A"[|] (AB/c/) | d2 d>e fd | e>c A3 d | (dFGBAG)  |     {E}F4 |]
"^B"[|     (AF) | (D>EFGAB) | A2 d2 zd | (c>decAc) | "^fine"d4 |]
"^C"[|     (cd) | ec A2  ag | f2 d3  A | d(AGFE)D  |  "^->B"A4 |]
